X: 30866
T: Out On The Ocean
R: jig
M: 6/8
K: Amajor
|:e|A>AA ABc|cac B2 a|cAB c2 B|c>AA A2 e|
A>AA ABc|cac Bcd|ecA c2 B|c>AA A2:|
|:a|f2 a f2 a|faf fec|e>ee ece|fac cBA|
[1 dcd e>ee|fac B2 a|cAB c2 B|c>AA A2:|
[2 dcd e>ee|fac Bcd|ecA c2 B|c>AA A2||

